flaticon/baby/pregnant.svg

<svg xmlns="http://www.w3.org/2000/svg" width="32" height="32" viewBox="0 0 24 24">
    <path d="M 24 12 C 24 5.757812 19.207031 0.613281 13.109375 0.0546875 L 13.109375 0.0507812 L 12.804688 0.03125 C 12.800781 0.03125 12.796875 0.03125 12.792969 0.0273438 C 12.683594 0.0234375 12.574219 0.015625 12.464844 0.0117188 C 12.304688 0.00390625 12.148438 0 12 0 C 11.804688 0 11.613281 0.00390625 11.417969 0.015625 C 11.359375 0.0195312 11.300781 0.0234375 11.242188 0.0273438 C 11.105469 0.0351562 10.972656 0.0429688 10.839844 0.0585938 C 10.773438 0.0625 10.707031 0.0703125 10.640625 0.078125 C 10.515625 0.09375 10.390625 0.109375 10.261719 0.128906 C 10.195312 0.136719 10.132812 0.148438 10.066406 0.15625 C 9.941406 0.179688 9.8125 0.199219 9.6875 0.226562 C 9.628906 0.238281 9.566406 0.25 9.503906 0.261719 C 9.371094 0.289062 9.242188 0.320312 9.113281 0.355469 C 9.058594 0.367188 9.003906 0.378906 8.953125 0.394531 C 8.808594 0.429688 8.664062 0.472656 8.519531 0.515625 C 8.484375 0.527344 8.449219 0.539062 8.410156 0.546875 C 8.214844 0.609375 8.019531 0.675781 7.828125 0.746094 L 7.679688 0.800781 L 7.675781 0.808594 C 3.191406 2.550781 0 6.90625 0 12 C 0 17.027344 3.109375 21.339844 7.503906 23.125 L 7.507812 23.128906 L 7.671875 23.191406 C 7.703125 23.203125 7.730469 23.210938 7.761719 23.222656 C 7.859375 23.261719 7.960938 23.296875 8.0625 23.332031 C 8.140625 23.359375 8.214844 23.386719 8.292969 23.410156 C 8.394531 23.445312 8.5 23.476562 8.605469 23.507812 C 8.683594 23.53125 8.761719 23.554688 8.84375 23.574219 C 8.945312 23.601562 9.046875 23.628906 9.148438 23.65625 C 9.234375 23.675781 9.320312 23.695312 9.410156 23.714844 C 9.503906 23.734375 9.601562 23.757812 9.699219 23.777344 C 9.796875 23.792969 9.894531 23.8125 9.988281 23.828125 C 10.078125 23.84375 10.167969 23.859375 10.261719 23.871094 C 10.367188 23.886719 10.476562 23.902344 10.585938 23.914062 C 10.667969 23.921875 10.75 23.933594 10.832031 23.941406 C 10.957031 23.953125 11.085938 23.960938 11.210938 23.96875 C 11.277344 23.976562 11.34375 23.980469 11.410156 23.984375 C 11.609375 23.996094 11.804688 24 12 24 C 12.195312 24 12.386719 23.996094 12.578125 23.984375 C 12.636719 23.980469 12.695312 23.976562 12.75 23.972656 C 12.886719 23.964844 13.023438 23.957031 13.160156 23.941406 C 13.222656 23.9375 13.285156 23.929688 13.347656 23.921875 C 13.476562 23.90625 13.609375 23.890625 13.742188 23.871094 C 13.800781 23.863281 13.855469 23.855469 13.914062 23.84375 C 14.054688 23.824219 14.191406 23.796875 14.328125 23.769531 C 14.378906 23.761719 14.425781 23.753906 14.472656 23.742188 C 14.625 23.710938 14.78125 23.675781 14.933594 23.636719 C 14.960938 23.628906 14.992188 23.621094 15.019531 23.613281 C 15.394531 23.515625 15.769531 23.402344 16.132812 23.269531 L 16.390625 23.175781 L 16.390625 23.164062 C 20.84375 21.40625 24 17.066406 24 12 Z M 15.109375 8.800781 C 14.929688 8.863281 14.816406 9.03125 14.824219 9.21875 L 14.855469 9.527344 L 15.136719 9.605469 C 15.300781 9.644531 15.875 9.8125 16.535156 10.195312 C 17.902344 10.988281 18.78125 12.363281 18.945312 13.96875 C 19.109375 15.582031 18.519531 17.113281 17.332031 18.167969 C 17.015625 18.449219 16.183594 18.820312 15.410156 19.101562 C 15.03125 18.570312 14.511719 18.066406 13.800781 17.652344 C 13.609375 17.542969 13.363281 17.609375 13.253906 17.800781 C 13.144531 17.992188 13.207031 18.234375 13.398438 18.34375 C 14.035156 18.714844 14.488281 19.167969 14.816406 19.644531 L 14.796875 19.757812 L 14.953125 19.914062 C 14.96875 19.929688 15.011719 19.980469 15.070312 20.074219 C 15.175781 20.277344 15.265625 20.484375 15.335938 20.683594 C 15.46875 21.101562 15.582031 21.714844 15.59375 22.605469 C 15.554688 22.617188 15.511719 22.632812 15.472656 22.644531 C 15.230469 22.726562 14.984375 22.796875 14.738281 22.859375 C 14.6875 22.875 14.628906 22.882812 14.578125 22.898438 C 14.3125 22.960938 14.046875 23.015625 13.777344 23.058594 C 13.765625 23.058594 13.757812 23.0625 13.746094 23.0625 C 13.453125 23.109375 13.152344 23.140625 12.855469 23.164062 C 12.828125 23.164062 12.800781 23.167969 12.773438 23.171875 C 12.472656 23.191406 12.167969 23.199219 11.863281 23.195312 C 11.859375 23.195312 11.859375 23.195312 11.855469 23.195312 C 11.230469 23.1875 10.605469 23.128906 9.988281 23.015625 C 9.976562 23.011719 9.964844 23.011719 9.957031 23.007812 C 9.65625 22.953125 9.355469 22.886719 9.0625 22.804688 C 9.042969 22.800781 9.023438 22.796875 9.003906 22.789062 C 8.710938 22.707031 8.417969 22.617188 8.128906 22.507812 C 7.695312 21.234375 7.160156 18.058594 9.152344 16.1875 C 9.828125 15.554688 9.953125 14.5 9.449219 13.683594 C 5.925781 7.945312 7.375 3.3125 8.253906 1.445312 C 8.371094 1.40625 8.484375 1.363281 8.601562 1.328125 C 8.632812 1.320312 8.660156 1.308594 8.691406 1.300781 C 8.84375 1.253906 8.996094 1.210938 9.148438 1.167969 C 9.171875 1.164062 9.191406 1.15625 9.214844 1.152344 C 10.097656 0.925781 11.019531 0.804688 11.972656 0.800781 C 12.105469 0.800781 12.238281 0.804688 12.371094 0.808594 C 12.398438 0.808594 12.429688 0.808594 12.460938 0.8125 C 12.742188 1.835938 13.871094 4.828125 17.488281 5.527344 C 17.269531 6.363281 16.613281 8.289062 15.109375 8.800781 Z M 0.800781 12 C 0.800781 7.539062 3.421875 3.683594 7.203125 1.882812 C 6.308594 4.21875 5.457031 8.714844 8.769531 14.105469 C 9.074219 14.597656 9.003906 15.230469 8.605469 15.605469 C 6.457031 17.621094 6.84375 20.652344 7.195312 22.113281 C 3.417969 20.3125 0.800781 16.457031 0.800781 12 Z M 16.417969 22.289062 C 16.414062 21.871094 16.355469 21.253906 16.144531 20.578125 C 16.136719 20.5625 16.132812 20.546875 16.128906 20.527344 C 16.117188 20.492188 16.105469 20.453125 16.089844 20.414062 C 16.011719 20.164062 15.921875 19.957031 15.839844 19.796875 C 16.457031 19.566406 17.414062 19.164062 17.863281 18.765625 C 19.246094 17.539062 19.929688 15.761719 19.742188 13.890625 C 19.554688 12.027344 18.53125 10.425781 16.9375 9.503906 C 16.671875 9.351562 16.421875 9.230469 16.199219 9.132812 C 17.886719 7.945312 18.34375 5.390625 18.363281 5.269531 L 18.4375 4.859375 L 18.023438 4.804688 C 14.832031 4.375 13.683594 1.988281 13.316406 0.878906 C 18.871094 1.53125 23.199219 6.269531 23.199219 12 C 23.199219 16.605469 20.402344 20.574219 16.417969 22.289062 Z M 16.417969 22.289062"/>
</svg>

<svg xmlns="http://www.w3.org/2000/svg" width="32" height="32" viewBox="0 0 24 24">
    <path d="M24 12C24 5.758 19.207.613 13.11.055V.05l-.305-.02c-.004 0-.008 0-.012-.004-.11-.004-.219-.011-.328-.015a9.589 9.589 0 0 0-1.223.015 6.71 6.71 0 0 0-.402.032 3.436 3.436 0 0 0-.2.02c-.124.015-.25.03-.378.05-.067.008-.13.02-.196.027-.125.024-.254.043-.379.07l-.183.036a6.323 6.323 0 0 0-.39.093c-.055.012-.11.024-.16.04a8.98 8.98 0 0 0-.434.12.894.894 0 0 1-.11.032c-.195.062-.39.129-.582.2L7.68.8l-.004.008C3.19 2.55 0 6.906 0 12c0 5.027 3.11 9.34 7.504 11.125l.004.004.164.062.09.032c.097.039.199.074.3.109.079.027.153.055.231.078a7.302 7.302 0 0 0 .55.164l.305.082c.086.02.172.04.262.059.094.02.192.043.29.062.097.016.195.035.288.051.09.016.18.031.274.043.105.016.215.031.324.043.082.008.164.02.246.027.125.012.254.02.379.028.066.008.133.011.2.015.198.012.394.016.589.016a9.434 9.434 0 0 0 .75-.027c.137-.008.273-.016.41-.032a3.05 3.05 0 0 0 .188-.02c.129-.015.261-.03.394-.05.059-.008.113-.016.172-.027.14-.02.277-.047.414-.074a9.788 9.788 0 0 0 .605-.133l.087-.024c.375-.097.75-.21 1.113-.343l.258-.094v-.012C20.844 21.406 24 17.066 24 12zm-8.89-3.2a.421.421 0 0 0-.286.419l.031.308.282.078c.164.04.738.207 1.398.59 1.367.793 2.246 2.168 2.41 3.774.164 1.613-.425 3.144-1.613 4.199-.316.281-1.148.652-1.922.934a5.096 5.096 0 0 0-1.61-1.45.402.402 0 0 0-.546.149.396.396 0 0 0 .144.543c.637.37 1.09.824 1.418 1.3l-.02.114.157.156c.016.016.059.066.117.16.106.203.196.41.266.61.133.418.246 1.03.258 1.921-.04.012-.082.028-.121.04a9.839 9.839 0 0 1-.735.214c-.05.016-.11.024-.16.04-.265.062-.531.117-.8.16-.012 0-.02.003-.032.003-.293.047-.594.079-.89.102-.028 0-.055.004-.083.008-.3.02-.605.027-.91.023h-.008a11.113 11.113 0 0 1-1.867-.18c-.011-.003-.023-.003-.031-.007a9.883 9.883 0 0 1-.895-.203c-.019-.004-.039-.008-.058-.016a10.346 10.346 0 0 1-.875-.281c-.434-1.274-.969-4.45 1.023-6.32.676-.633.801-1.688.297-2.504C5.926 7.945 7.375 3.313 8.254 1.445c.117-.039.23-.082.348-.117.03-.008.058-.02.09-.027.152-.047.304-.09.456-.133.024-.004.043-.012.067-.016a11.255 11.255 0 0 1 2.758-.351c.132 0 .265.004.398.008.027 0 .059 0 .09.003.281 1.024 1.41 4.016 5.027 4.715-.218.836-.875 2.762-2.379 3.274zM.8 12c0-4.46 2.622-8.316 6.403-10.117C6.31 4.219 5.457 8.715 8.77 14.105c.304.493.234 1.125-.165 1.5-2.148 2.016-1.761 5.047-1.41 6.508C3.418 20.313.801 16.457.801 12zm15.618 10.29a6.048 6.048 0 0 0-.29-1.763c-.01-.035-.023-.074-.038-.113a3.93 3.93 0 0 0-.25-.617c.617-.23 1.574-.633 2.023-1.031 1.383-1.227 2.067-3.004 1.88-4.875-.188-1.864-1.212-3.465-2.805-4.387a7.679 7.679 0 0 0-.739-.371c1.688-1.188 2.145-3.742 2.164-3.863l.075-.41-.415-.055c-3.191-.43-4.34-2.817-4.707-3.926C18.871 1.53 23.2 6.269 23.2 12c0 4.605-2.797 8.574-6.781 10.29zm0 0"/>
</svg>
